X:1
T:The Grey Mare
M:6/8
L:1/8
K:D
D/2-B,/2| A,B,D D3/2 E/2F/2-E/2| FBB B2 F/2G/2| AFD| B,CD| EE/2-D/2 C D2 A|\
 BBB Bcd|c/2-B/2 AA A3| AFD B,CD| EE/2-D/2 C| D2 A,| B,BB AGE| G3/2 F/2E/2-D/2 B,2 A,|\
 B,DD DFD| CB,A, dA z| FG/2-F/2 EDC-D|
